packages/symbols/svgs/solid/xmark-solid.svg

<svg width="16" height="16" viewBox="0 0 16 16" xmlns="http://www.w3.org/2000/svg"><path d="M14.7 1.3c-.4-.4-1-.4-1.4 0L8 6.6 2.7 1.3c-.4-.4-1-.4-1.4 0-.4.4-.4 1 0 1.4L6.6 8l-5.3 5.3c-.4.4-.4 1 0 1.4.2.2.4.3.7.3.3 0 .5-.1.7-.3L8 9.4l5.3 5.3c.2.2.5.3.7.3.2 0 .5-.1.7-.3.4-.4.4-1 0-1.4L9.4 8l5.3-5.3c.4-.4.4-1 0-1.4Z"/></svg>

<svg width="16" height="16" viewBox="0 0 16 16" fill="none" xmlns="http://www.w3.org/2000/svg">
<path d="M14.7 1.3C14.3 0.9 13.7 0.9 13.3 1.3L8 6.6L2.7 1.3C2.3 0.9 1.7 0.9 1.3 1.3C0.9 1.7 0.9 2.3 1.3 2.7L6.6 8L1.3 13.3C0.9 13.7 0.9 14.3 1.3 14.7C1.5 14.9 1.7 15 2 15C2.3 15 2.5 14.9 2.7 14.7L8 9.4L13.3 14.7C13.5 14.9 13.8 15 14 15C14.2 15 14.5 14.9 14.7 14.7C15.1 14.3 15.1 13.7 14.7 13.3L9.4 8L14.7 2.7C15.1 2.3 15.1 1.7 14.7 1.3Z" fill="black"/>
</svg>
